!!!!SEGMENT: pl-kc--40102-iii-1-saf--002-031_zielenski-mikolaj--communiones-totius-anni-in-festo-sanctorum-innocentum-vox-in-rama.krn
!!!cenid: 16xx:1562
!!!COM: Zieleński, Mikołaj
!!!COM-rismID: pe30013481
!!!CDT: <1611->1611
!!!CNT: Polish
!!!GTL: Communiones totius anni
!!!OTL: In festo Sanctorum Innocentum/Vox in Rama
!!!OMV: 031
!!!PDT: 1611
!!!AGN:
!!!SMS-siglum: PL-Kc
!!!SMS-shelfmark: 40102 III/1 Saf.
!!!SMS-shelfwork: 002-031 G
!!!SMS-variant:
!!!SMS-altvar:
!!!NIFC-rismSourceID: 990069887
!!!NIFC-rismChildID: 990069887
!!!NIFC-islandoraID: none
!!!URL-pdf-islandora:
!!!URL-scan: https://cyfrowe.mnk.pl/dlibra/publication/24235/edition/23926/content?ref=desc @EN{Scan on The National Museum in Krakow Website} @PL{Skany w portalu Biblioteka Cyfrowa Muzeum Narodowego w Krakowie}
!!!ONB-nifc: UWAGA: str. 59-60. Numer w źródle: 36. Uwaga: W xml metrum 2/1 do źródłowego C| i odpowiednio 3/1 do 3/2
!!!AIN: 4 organ
!!!key:
**kern	**kern	**kern	**kern
*part4	*part3	*part2	*part1
*staff4	*staff3	*staff2	*staff1
*I"	*I"	*I"	*I"Organo
*I'	*I'	*I'	*I'org
*Iorgan	*Iorgan	*Iorgan	*Iorgan
*ICklav	*ICklav	*ICklav	*ICklav
*clefC4	*clefC2	*clefC1	*clefG2
*k[]	*k[]	*k[]	*k[]
*a:	*a:	*a:	*a:
*M2/1	*M2/1	*M2/1	*M2/1
*met(C|)	*met(C|)	*met(C|)	*met(C|)
=1	=1	=1	=1
!	!	!	!LO:TX:a:t=36. In feſto Sanƈtorum Innocentum. à 4. Soli debent cantare cum Organo.
!	!	!	!LO:TX:b:t=Vox in Rama.
00r	00r	00r	1.ee
.	.	.	2a/
=2-	=2-	=2-	=2-
.	.	.	1cc
.	.	.	1b
=3	=3	=3	=3
00r	1r	1.ee	0r
.	1.a	.	.
.	.	2a\	.
=4-	=4-	=4-	=4-
.	.	1cc	1.ee
.	2e/	.	.
.	[y1g	[y1b	.
.	.	.	2b/
=5	=5	=5	=5
!	!LO:N:vis=4:xstem:cue	!LO:N:vis=4:xstem:cue	!
0r	2g\]	2b\]	2dd\
.	2f\	2a\	2cc\
*	*	*	*lig
.	1.e	2g#X/	1b
.	.	2.a\	.
=6-	=6-	=6-	=6-
*	*	*	*col
1r	.	.	2.a/
.	.	8g#X/	.
!	!	!LO:SIC:v:s=8f#/	!
.	.	8f/	.
.	2e/	2g#/	.
*	*	*	*Xlig
.	.	.	4b/
*	*	*	*Xcol
[y1A	4A/	1a	2cc\
.	4B/	.	.
.	4c/	.	4b/
.	4d/	.	4a/
=7	=7	=7	=7
!LO:N:vis=4:xstem:cue	!	!	!
2A\]	4e/	1r	1b
.	4f#X\	.	.
2E/	1g	.	.
1.G	.	2r	1r
.	4G/	1dd\	.
.	4A/	.	.
=8-	=8-	=8-	=8-
!	!	!	!LO:N:vis=2
.	4B/	.	1.r
.	4c/	.	.
2F/	4d/	2a\	.
.	2a\	.	.
1E	.	2cc\	.
.	8g#X\	.	.
.	8f#y\	.	.
.	2g#\	2b\	[<2ee\
=9	=9	=9	=9
2r	2a\	2.cc\	2ee\]
1A	2f\	.	2a/
.	.	4dd\	.
.	2e/	4ee\	1cc
.	.	4cc\	.
2F/	2a\	2.ff\	.
=10-	=10-	=10-	=10-
0G	2d/	.	2b/
.	.	4ee\	.
.	2.g\	4ee\	2.cc\
.	.	8dd\	.
.	.	8cc\	.
.	.	2dd\	.
.	4f\	.	8b/
.	.	.	8a/
.	2d/	2dd\	2b/
=11	=11	=11	=11
1C	2c/	2ee\	2cc\
.	4r	4cc\	2ee\
.	4e/	2cc\	.
1r	2f\	.	2dd\
.	.	8b\	.
.	.	8a\	.
.	2g\	2b\	2dd\
=12-	=12-	=12-	=12-
2r	1c	2cc\	2ee\
2E/	.	2ee\	2gg\
2F/	1r	4dd\	2ff\
.	.	2cc\	.
2G/	.	.	2dd\
.	.	4b\	.
=13	=13	=13	=13
1C	1r	2cc\	2ee\
.	.	2cc\	2ee\
1r	2r	1b	1dd
.	2g\	.	.
*custos:A	*custos:f	*custos:a	*custos:dd
!!linebreak:original
=14-	=14-	=14-	=14-
0r	1f	1.a	2dd\
.	.	.	2cc\
.	2f\	.	[y1cc
.	2e/	2g/	.
=15	=15	=15	=15
*	*lig	*	*
!	!	!	!LO:N:vis=4:xstem:cue
0r	1e-X	1g	2cc\]
.	.	.	2b/
.	1d	2f#X/	1b
*	*	*lig	*
.	.	1a\	.
*	*Xlig	*	*
=16-	=16-	=16-	=16-
1r	2.d/	.	0a
.	.	1g	.
.	8c/	.	.
.	8B/	.	.
2r	4A/	.	.
.	4B/	.	.
*	*	*Xlig	*
2A/	2c/	4e/	.
.	.	4d/	.
=17	=17	=17	=17
*	*lig	*	*
1G	1B	2e/	1r
.	.	2.d/	.
*	*col	*	*
2F#X/	2A/	.	2r
.	.	4B/	.
*	*Xlig	*	*
!LO:N:acc=-	!	!	!
2Fn/	4.G/	4c/	2aa\
.	.	4d/	.
.	8A/	.	.
*	*Xcol	*	*
=18-	=18-	=18-	=18-
2E/	2B/	2e/	1gg
2E/	2c#X/	2ee\	.
1D	1d	2a\	2ff#X\
!	!	!	!LO:N:acc=-
.	.	[<2dd\	2ffn\
=19	=19	=19	=19
1A	2r	2dd\]	1ee
.	1a	2cc\	.
0r	.	2b\	2dd\
.	2g\	2b\	2.ee\
=20-	=20-	=20-	=20-
.	1f	2.a\	.
.	.	.	8dd\
.	.	.	8cc\
.	.	.	2dd\
.	.	4b\	.
2r	[y1e	2cc\	1ee
[2E/	.	4b\	.
.	.	4a\	.
=21	=21	=21	=21
!	!LO:N:vis=4:xstem:cue	!	!
2E/]	2e\]	2b\	1r
2F#X/	2A/	2a\	.
*lig	*	*	*
1G	1B	2r	2r
.	.	1g\	1dd\
=22-	=22-	=22-	=22-
1A	1c	.	.
.	.	2f#X/	1cc
*Xlig	*	*	*
1G	[y1d	1g	.
.	.	.	2b-X/
=23	=23	=23	=23
!	!LO:N:vis=4:xstem:cue	!	!
2r	2d/]	2a\	2a/
1D	1a	1dd	1ff
2E/	2g\	2cc\	2ee\
=24-	=24-	=24-	=24-
1F	2f\	1a	2dd\
.	2e/	.	2cc\
2G/	2d/	2g/	2b/
[y2G/	[y2B/	[y2g/	[y2dd\
=25	=25	=25	=25
!LO:N:xstem:cue	!LO:N:xstem:cue	!LO:N:xstem:cue	!LO:N:xstem:cue
4G/]	4B/]	4g/]	4dd\]
4G/	4B/	4g/	4dd\
2F/	2.d/	2a\	2dd\
1E	.	1g	1ee
.	8c#X/	.	.
.	8B/	.	.
.	2c#/	.	.
=26-	=26-	=26-	=26-
!LO:TX:t=P:problem=nieczytelne źródło	!	!	!
2ryy	2d/	2f/	2a/
2.D/	2.d/	2.a\	2.ff\
4D/yy	4d/	4a\	4ff\
2C#X/	2e/	2a\	[<2ee\
=27	=27	=27	=27
4D/	1.f	0a	2ee\]
4E/	.	.	.
4F/	.	.	2.dd\
8E/	.	.	.
8D/	.	.	.
1A	.	.	.
.	.	.	8cc#X\
.	.	.	8b\
.	2e/	.	4cc#\
.	.	.	8b#\
.	.	.	8cc#\
=28-	=28-	=28-	=28-
0D	2d/	2f/	1dd
.	2A/	2d/	.
.	2.d/	2.f/	1a
.	4d/	4f/	.
=29	=29	=29	=29
0r	2c#X/	2e/	2r
.	2.d/	2.f/	2a/
.	.	.	2.dd\
.	4e/	4g/	.
.	4f\	4a\	.
.	4d/	4f/	4dd\
=30-	=30-	=30-	=30-
1r	2e/	2g/	2cc#X\
!	!LO:N:vis=1.	!	!
.	1d	2f/	2.dd\
2r	.	1a	.
.	.	.	4ee\
2D/	[y2d/	.	4ff\
.	.	.	4dd\
=31	=31	=31	=31
!	!LO:N:xstem:cue	!	!
2.A/	4d/]	1a	2ee\
.	8c#X/	.	.
.	8B/	.	.
.	2c#/	.	2ee\
4A/	.	.	.
2F#X/	1d	2r	1dd
2.G/	.	2d/	.
=32-	=32-	=32-	=32-
.	0r	2.g/	1dd
4A/	.	.	.
4B-X\	.	.	.
4G/	.	4g/	.
4A/	.	2f/	1r
4D/	.	.	.
[2G/	.	4g/	.
.	.	4a\	.
=33	=33	=33	=33
2G/]	2G/	4b-X\	2r
.	.	4g/	.
2F/	2.d/	2a\	2dd\
1E	.	2g/	2.gg\
.	4d/	.	.
.	2c#X/	2e/	.
.	.	.	4gg\
=34-	=34-	=34-	=34-
2D/	2d/	2a\	2ff#X\
2G/	2d/	2r	2.gg\
2.c\	1e	1r	.
.	.	.	4ff#\
.	.	.	4ee\
4c\	.	.	8dd\
.	.	.	8cc\
=35	=35	=35	=35
2B\	2d/	2r	2dd\
2c\	2r	2g/	2ee\
2A/	2r	2.cc\	2ee\
2A/	2c/	.	4dd\
.	.	4cc\	4cc\
*custos:G	*custos:g	*custos:b	*custos:dd
!!pagebreak:original
=36-	=36-	=36-	=36-
1G	2.g\	2b\	4dd\
.	.	.	4cc\
.	.	2.dd\	4b/
.	4g\	.	8a/
.	.	.	8g/
2r	2f#X\	.	2a/
.	.	4cc\	.
2E/	2g\	2b\	2r
=37	=37	=37	=37
2.A/	2e/	2cc\	1r
.	4d/	4b\	.
4A/	4c/	4a\	.
2G#X/	2B/	2b\	2r
2A/	2c/	2a\	2ee\
=38-	=38-	=38-	=38-
1F	2.A/	2cc\	2.aa\
.	.	2dd\	.
.	4A/	.	4aa\
[1E	2B/	2ee\	2gg\
.	2c/	[y2cc\	[y2ee\
=39	=39	=39	=39
!	!	!LO:N:xstem:cue	!LO:N:xstem:cue
0E]	2G/	4cc\]	4ee\]
.	.	4b\	4dd\
.	2A/	2.a\	2cc\
.	2B/	.	1b
.	.	8g#X/	.
.	.	8f/	.
.	2e/	2g#/	.
=40-	=40-	=40-	=40-
1AA	4e/	2a\	2cc\
.	4d/	.	.
.	4c/	1cc	1ee
.	4B/	.	.
2r	2A/	.	.
[2A/	[2e/	2a\	2cc\
=41	=41	=41	=41
2A/]	2e/]	1a	1cc
2F/	2f\	.	.
1F	2.f\	2a\	2a/
.	.	1dd\	1ff\
.	4g\	.	.
=42-	=42-	=42-	=42-
2D/	1.a	.	.
1F	.	4cc\	4ee\
.	.	4b\	4dd\
.	.	4a\	4cc\
.	.	4b\	4dd\
2C/	2a\	2cc\	[<2ee\
=43	=43	=43	=43
00D	1.f	1.a	2ee\]
.	.	.	4dd\
.	.	.	4cc#X\
.	.	.	4dd\
.	.	.	4a/
.	2d/	2.ff\	2.aa\
=44-	=44-	=44-	=44-
.	2.f\	.	.
.	.	4ee\	4gg\
.	.	4dd\	4ff\
.	4g\	4cc#X\	4ee\
.	1a	4dd\	1ff
.	.	4a\	.
.	.	1dd\	.
=45-	=45-	=45-	=45-
0Al	0al	.	0eel
.	.	4cc#X\	.
.	.	4b\	.
.	.	1cc#Xl	.
==	==	==	==
*-	*-	*-	*-
!!!system-decoration: [(s1,s2,s3,s4)]
!!!RDF**kern: l = terminal long
!!!RDF**kern: i = editorial accidental
!!!RDF**kern: > = above
!!!RDF**kern: < = below
!!!ENC: Katarzyna Serwa
!!!END: 2021-12-25
!!!ENC: Anastazja Marusiak
!!!END: 2021-12-20
!!!YEC: Copyright 2022 Narodowy Instytut Fryderyka Chopina (https://polishscores.org)
!!!YEM: License CC-BY-4.0 (https://creativecommons.org/licenses/by/4.0)
